X: 3
T: The Centenary March
R: barndance
M: 4/4
L: 1/8
K: Dmaj
|: DF |A2 A>B AF ED | f3 f ed BF | A2 A>B AF ED | E2 EF E2 DF |
A2 A>B AF ED | f2 ff ed B/c/d | A2 d>e fe dc | d2 dc d2 :|
|: Ad |f/a/f/e/ fa Ad fa | ga/g/ fg/f/ e2 fg | af dA F/G/A/F/ G/A/G/F/ | E3 F E2 FG |
AD FA dF Ad | fa gf ed cB | Aa ^ga ge cA | d2 dc d2 :|


Tune 3655	Setting 26221

